X: 421
T:Isle of Innisfree
M:C
L:1/8
K:G
"D7"D GA|"G"B3 G DB,DG|"D7"F2 E2-EAAG|
F3 E D^D"Am"EC|"G"B,4 "D7"z1 D GA|"G"B3 B "G7"BB AG|
"C"c2 (E2 E)A"A7"AG|"D7"F3 D CDFA|"G"(G4 G)"D7"DGA|
"G"B3 G DB,DG|"D7"F2 (E2 E)AAG|F3 E D^D"Am7"EC|
"G"B,4 "D7"z1 D GA|"G"B3 B BBAG|"C"c2 (E2 "A7"E)AAG|
"D7"F3 D CDFA|"G"(G4 G)GGF|"C"E3 F GGFE|
"G"G2 (D2 D)EFG|"A7"A3 A AEFG|"D"(A4 "D7"A)DGA|
"G"B3 B BBAG|"C"c2 (E2 E)AAG|"D7"F3 D CDFA|"G"(G4 G)||


